assets/icons/qvision/military_tech.svg

<svg xmlns="http://www.w3.org/2000/svg" enable-background="new 0 0 24 24" height="24" viewBox="0 0 24 24" width="24"><g><rect fill="none" height="24" width="24"/></g><g><path d="M17,10.43V2H7v8.43c0,0.35,0.18,0.68,0.49,0.86l4.18,2.51l-0.99,2.34l-3.41,0.29l2.59,2.24L9.07,22L12,20.23L14.93,22 l-0.78-3.33l2.59-2.24l-3.41-0.29l-0.99-2.34l4.18-2.51C16.82,11.11,17,10.79,17,10.43z M13,12.23l-1,0.6l-1-0.6V3h2V12.23z"/></g></svg>

<svg width="24" height="24" viewBox="0 0 24 24" fill="none" xmlns="http://www.w3.org/2000/svg">
<g clip-path="url(#clip0_147_6513)">
<path d="M17 10.43V2H7V10.43C7 10.78 7.18 11.11 7.49 11.29L11.67 13.8L10.68 16.14L7.27 16.43L9.86 18.67L9.07 22L12 20.23L14.93 22L14.15 18.67L16.74 16.43L13.33 16.14L12.34 13.8L16.52 11.29C16.82 11.11 17 10.79 17 10.43ZM13 12.23L12 12.83L11 12.23V3H13V12.23Z" fill="#323232"/>
</g>
<defs>
<clipPath id="clip0_147_6513">
<rect width="24" height="24" fill="white"/>
</clipPath>
</defs>
</svg>
